packages/foundations/assets/icons/functional/images/file/cloud_download_24.svg

<svg width="24" height="24" viewBox="0 0 24 24" fill="none" xmlns="http://www.w3.org/2000/svg">
<g clip-path="url(#clip0_185_880)">
<path fill-rule="evenodd" clip-rule="evenodd" d="M12 21.5L12.0752 21.4972L12.2007 21.4798L12.3121 21.4503L12.4232 21.4063L12.5207 21.354L12.6129 21.2903L12.6592 21.252L12.7071 21.2071L15.2071 18.7071C15.5976 18.3166 15.5976 17.6834 15.2071 17.2929C14.8466 16.9324 14.2794 16.9047 13.8871 17.2097L13.7929 17.2929L13 18.085V11.5C13 10.9477 12.5523 10.5 12 10.5C11.4872 10.5 11.0645 10.886 11.0067 11.3834L11 11.5V18.086L10.2071 17.2929C9.84662 16.9324 9.27939 16.9047 8.8871 17.2097L8.79289 17.2929C8.43241 17.6534 8.40468 18.2206 8.7097 18.6129L8.79289 18.7071L11.2929 21.2071C11.3283 21.2425 11.3657 21.2747 11.4047 21.3037L11.5159 21.3753L11.6287 21.4288L11.734 21.4642L11.8515 21.489L11.91 21.496L12 21.5ZM14 2.5C16.7865 2.5 19.154 4.40741 19.816 7.01948L19.8699 7.25176L19.904 7.431L20.0483 7.53684C21.1319 8.36961 21.838 9.6183 21.9754 11.0029L21.9945 11.264L22 11.5C22 14.0945 20.0193 16.2411 17.4461 16.4791L17.2242 16.4948L16.997 16.4947C16.4856 16.4943 16.0643 16.1093 16.0067 15.6133L16 15.4755C16 14.9754 16.3765 14.5632 16.8615 14.5069L16.9755 14.5003L17.1505 14.4963C18.7424 14.4181 20 13.101 20 11.5C20 10.4091 19.4136 9.42189 18.4831 8.89257C18.1997 8.73136 18.0127 8.44211 17.982 8.11751C17.7889 6.07532 16.067 4.5 14 4.5C12.9764 4.5 12.0155 4.88473 11.2811 5.56623C10.9893 5.83692 10.5649 5.90888 10.2003 5.74947C9.82557 5.58565 9.41971 5.5 9 5.5C7.34315 5.5 6 6.84315 6 8.5C6 8.58403 6.00343 8.66527 6.01023 8.74295C6.04682 9.16079 5.81877 9.55706 5.43911 9.73535C4.56782 10.1445 4 11.0206 4 12C4 13.2741 4.95607 14.3332 6.17456 14.4811L6.33492 14.4952L6.5 14.5H7.0035C7.55385 14.5 8 14.9461 8 15.4965C8 16.0469 7.55388 16.4931 7.0035 16.4932L6.25397 16.4934C3.94549 16.3685 2.114 14.5113 2.00512 12.2164L2 12C2 10.6133 2.63322 9.34094 3.66672 8.50323L3.85321 8.35997L4.006 8.254L4.01835 8.06858C4.22457 5.65564 6.14447 3.73181 8.55566 3.51947L8.78311 3.50462L9 3.5C9.29862 3.5 9.59388 3.5263 9.8831 3.57791L10.1702 3.63791L10.401 3.7L10.5745 3.5732C11.4902 2.93521 12.8591 2.55386 14 2.5Z" fill="#1A1C1F"/>
</g>
<defs>
<clipPath id="clip0_185_880">
<rect width="24" height="24" fill="white"/>
</clipPath>
</defs>
</svg>

<svg xmlns="http://www.w3.org/2000/svg" width="24" height="24" fill="none"><g clip-path="url(#a)"><path fill="#1A1C1F" fill-rule="evenodd" d="m12 21.5.075-.003.126-.017.111-.03.111-.044.098-.052.092-.064.046-.038.048-.045 2.5-2.5a1 1 0 0 0-1.32-1.497l-.094.083-.793.792V11.5a1 1 0 0 0-1.993-.117L11 11.5v6.586l-.793-.793a1 1 0 0 0-1.32-.083l-.094.083a1 1 0 0 0-.083 1.32l.083.094 2.5 2.5q.053.053.112.097l.11.071.114.054.105.035.117.025.059.007zm2-19a6 6 0 0 1 5.816 4.52l.054.232.034.179.144.106a5 5 0 0 1 1.927 3.466l.02.261.005.236a5.004 5.004 0 0 1-4.554 4.98l-.222.015h-.227a1 1 0 0 1-.99-.882L16 15.476c0-.5.377-.913.861-.97l.114-.006.175-.004a3 3 0 0 0 1.333-5.603 1 1 0 0 1-.501-.775 4 4 0 0 0-6.7-2.552 1 1 0 0 1-1.082.183 3 3 0 0 0-4.19 2.993 1 1 0 0 1-.57.993A2.5 2.5 0 0 0 4 12c0 1.274.956 2.333 2.175 2.481l.16.014.165.005h.503a.996.996 0 1 1 0 1.993h-.749a4.5 4.5 0 0 1-4.249-4.277L2 12c0-1.387.633-2.66 1.667-3.497l.186-.143.153-.106.012-.185a5 5 0 0 1 4.538-4.55l.227-.014L9 3.5q.449 0 .883.078l.287.06.231.062.174-.127C11.49 2.935 12.859 2.553 14 2.5" clip-rule="evenodd"/></g><defs><clipPath id="a"><path fill="#fff" d="M0 0h24v24H0z"/></clipPath></defs></svg>
